src/components/Icon/assets/weather-rain.svg

<svg width="24" height="24" viewBox="0 0 24 24" fill="none" xmlns="http://www.w3.org/2000/svg">
<path fill-rule="evenodd" clip-rule="evenodd" d="M6.01891 15.007H16.9209C19.1699 15.007 20.9999 13.177 20.9999 10.927C20.9999 8.67701 19.1699 6.84701 16.9209 6.84701H15.7219L15.4329 6.35301C14.7129 5.12301 13.4479 4.39001 12.0489 4.39001C10.1159 4.39001 8.44991 5.84101 8.17191 7.76501L8.04891 8.62201H6.01891C4.35491 8.62201 2.99991 9.97701 2.99991 11.642V11.986C2.99991 13.652 4.35491 15.007 6.01891 15.007ZM16.9209 4.84701C20.2729 4.84701 22.9999 7.57401 22.9999 10.927C22.9999 14.153 20.4729 16.793 17.2949 16.988L14.7099 23.002L12.8719 22.213L15.1089 17.007H8.55791L5.98191 23.002L4.14391 22.213L6.38091 17.007H6.01891C3.25191 17.007 0.999908 14.755 0.999908 11.986V11.642C0.999908 8.87401 3.25191 6.62201 6.01891 6.62201H6.38191C7.12491 4.15701 9.42391 2.39001 12.0489 2.39001C13.9379 2.39001 15.7229 3.31901 16.8349 4.84701H16.9209ZM8.50821 22.2132L10.7452 17.0072H12.9222L10.3452 23.0022L8.50821 22.2132Z" fill="#65676A"/>
</svg>

<svg xmlns="http://www.w3.org/2000/svg" width="24" height="24" viewBox="0 0 24 24">
    <path fill="#65676A" fill-rule="evenodd" d="M12.922 17.007l-2.577 5.995-1.837-.789 2.237-5.206h2.177zM12.05 2.39c1.889 0 3.674.929 4.786 2.457h.086c3.352 0 6.079 2.727 6.079 6.08 0 3.226-2.527 5.866-5.705 6.061l-2.585 6.014-1.838-.789 2.237-5.206H8.558l-2.576 5.995-1.838-.789 2.237-5.206h-.362c-2.767 0-5.02-2.252-5.02-5.021v-.344c0-2.768 2.253-5.02 5.02-5.02h.363c.743-2.465 3.042-4.232 5.667-4.232zm0 2c-1.933 0-3.6 1.451-3.877 3.375l-.123.857h-2.03c-1.664 0-3.02 1.355-3.02 3.02v.344c0 1.666 1.356 3.021 3.02 3.021H16.92c2.249 0 4.079-1.83 4.079-4.08s-1.83-4.08-4.08-4.08h-1.198l-.29-.494c-.72-1.23-1.984-1.963-3.383-1.963z"/>
</svg>
